logos/browserify-icon.svg

<?xml version="1.0" encoding="UTF-8" standalone="no" ?>
<svg width="256px" height="216px" viewBox="0 0 256 216" version="1.1" xmlns="http://www.w3.org/2000/svg" xmlns:xlink="http://www.w3.org/1999/xlink" preserveAspectRatio="xMidYMid">
    <g>
        <path d="M110.582223,0.00868984925 C106.154993,0.0907835176 100.614863,2.8520008 96.6525749,1.89813709 C95.0710094,1.51743035 93.1379329,1.3533009 91.2455397,1.45592603 C91.2121568,1.45785568 91.1784201,1.45399638 91.1450372,1.45592603 C89.2208306,1.57024482 87.3430448,1.97588905 85.9591075,2.8227602 C85.9019256,2.85775116 85.8363369,2.89013065 85.778203,2.92326271 C85.7230794,3.00370332 85.6650742,3.07659256 85.5972985,3.14436824 C83.7583437,4.98331658 79.6906903,5.15147899 77.7983035,7.04386573 C76.2525974,8.58957186 74.8203546,11.5491506 73.1148864,14.1996446 C73.0986774,14.2248587 73.0909588,14.2548969 73.0746854,14.2800466 C67.0066107,21.3547417 62.1643578,30.0597966 60.4515698,37.174519 C59.0442517,43.020369 59.0636511,50.9159236 56.7530774,56.7323079 C56.1068704,58.3589757 53.4277146,67.363364 55.5068462,69.1142175 C56.9230022,70.3067787 62.9597331,71.2199268 64.7329769,69.1142175 C65.6872844,67.9808836 74.438072,65.1484044 77.1751879,61.8981371 C80.3982794,58.0706734 82.061321,51.4597178 84.2706653,45.8981371 C84.6222408,45.0131489 85.0749234,44.0740535 85.5972985,43.1443682 C86.8507337,45.5721873 87.8457053,47.5544249 88.3711678,48.7725089 C89.4649568,51.3079767 90.6684655,54.8141861 91.6676503,58.5614537 C89.5023083,61.8785705 90.4045411,66.4171224 91.9691578,68.4911019 C85.6376667,70.4623405 88.6538098,77.2737672 88.4113688,77.5162275 C87.9943976,77.933321 86.6735083,78.4903204 86.1400121,79.0237652 C85.4795256,79.6842581 85.376193,81.0617246 85.376193,82.0589411 C85.376193,83.0211216 85.4977544,83.876123 85.6777005,84.6318054 C79.9168901,99.1238689 74.4793021,117.263701 67.6073487,127.043866 C65.6294336,127.946021 63.6059594,128.720524 61.2354894,129.194619 C56.616484,130.349681 44.9409544,132.638366 35.1048349,135.948388 C34.6779195,136.515782 34.1804626,137.073766 33.6173977,137.636831 C32.6427774,138.611444 30.6925205,138.611959 29.7179002,139.586579 C28.9598636,140.344616 26.5965398,139.491853 25.8385032,140.249896 C23.5891573,142.499235 20.2691846,143.667715 16.7329756,145.435826 C16.3406717,145.631974 15.083583,145.135469 14.7832269,145.435826 C13.1768204,147.042232 10.3005125,147.968791 8.93398062,149.335323 C6.26041439,152.008889 4.01908937,154.913531 1.13498565,157.797635 C-1.73128169,160.663902 4.11407309,168.555616 5.03448314,169.476027 C7.74293097,172.184474 12.7179951,172.616831 15.4264429,175.325273 C16.5658938,176.464724 20.3861792,174.940913 21.7581012,175.847886 C22.1124168,175.897735 22.4292586,175.962359 22.6425233,176.068991 C26.6330488,178.064254 34.4608341,179.539419 39.1852369,181.114217 C45.6961158,183.284506 50.8607164,189.083337 57.577198,190.762459 C62.6902706,192.040728 68.4971417,192.720691 73.6576,194.440851 C75.8150947,195.160011 78.4351968,194.666549 80.5319719,195.365474 C84.4533644,196.672605 87.9940245,198.295034 91.5671477,199.486077 C92.8047148,199.898597 94.4399566,199.1691 95.7078513,199.486077 C98.5607526,200.199301 101.644806,200.406435 104.431469,201.335323 C109.393418,202.989308 116.012234,199.681338 120.974183,201.335323 C124.244268,202.425349 144.603266,200.681114 146.240515,199.043866 C147.444158,197.840222 152.021676,199.369359 153.597298,198.581554 C154.964834,197.897783 159.117778,198.568626 160.029459,197.656931 C162.38408,195.302304 167.217598,195.198546 170.582223,193.516228 C171.997562,192.808561 174.178939,193.788218 175.64755,193.053916 C176.492285,192.631548 178.208418,193.151228 180.06966,193.958439 C183.611568,193.884006 186.337505,193.516228 189.878706,193.516228 C194.088818,193.516228 199.900803,191.517266 206.05961,188.491102 C212.875604,186.955752 221.206931,185.182977 221.597298,184.792609 C224.558627,181.831281 232.429848,182.683678 235.366143,179.747383 C237.446304,177.667216 240.119169,176.823497 242.260615,174.682057 C244.168381,172.774284 246.789384,170.589839 249.536997,168.290097 C250.01555,166.956363 251.24031,165.702361 252.371168,164.571504 C252.845353,164.097319 256.192006,154.303633 255.587248,153.094117 C254.479778,150.879177 252.649906,149.047291 250.542022,147.345373 C249.888058,147.12138 249.386574,146.893443 249.155087,146.661956 C246.903439,144.410308 241.508355,144.060449 239.506846,142.058941 C236.283948,138.836043 231.438382,135.939583 225.6576,133.99864 C224.446804,133.398519 223.313528,132.760095 222.501821,131.948388 C221.472212,130.918786 215.52164,129.604027 213.778203,128.732308 C212.840439,128.263416 210.799604,128.98989 210.099811,128.290097 C208.40246,126.592746 201.288626,125.383384 196.150062,123.747383 C195.400793,123.794917 194.1985,123.222956 193.979208,123.003665 C193.824611,122.849061 189.841277,122.262718 188.531972,120.953413 C188.383325,120.804773 187.848555,115.467726 187.848555,114.80266 C187.848555,114.557453 187.253471,113.568598 187.607349,113.21472 C187.662408,113.159661 187.716207,113.094889 187.768153,113.033815 C185.389816,98.3780535 183.571316,82.1946533 181.858605,80.7524084 C179.315264,78.6105954 177.902273,66.78656 175.104836,64.4308004 C172.179985,61.9678617 170.349463,59.2746066 168.089761,57.174519 C168.088474,57.1680868 168.091047,57.1608185 168.089761,57.1544507 C167.239596,52.481994 165.625285,47.2324824 165.114886,46.8026919 C164.285942,46.1045773 165.541828,42.9379988 164.712876,42.2398778 C162.132609,40.0670939 158.771251,27.2929962 156.351067,25.2549532 C153.181382,22.5856708 151.62213,18.4427674 148.612374,15.9082195 C141.1754,9.64556543 128.821715,0.326271357 115.165138,1.03384764 C114.578074,0.868341709 114.006435,0.669362814 113.456595,0.450933065 C112.588369,0.106008442 111.603908,-0.0102271357 110.582223,0.00872201005 L110.582223,0.00868984925 Z" fill="#3C6991"></path>
        <path d="M107.633746,81.1124229 C106.486667,80.9056032 105.365168,80.8936137 104.485274,81.1855373 C103.020054,81.6718601 100.657746,80.5203425 99.1278312,80.796488 C93.3433375,81.8405821 88.808246,83.4077524 88.0272531,85.3523361 C96.6125926,82.890954 106.143884,88.384759 110.04865,93.6050943 C111.67178,95.7748808 109.168113,99.0635996 110.051866,101.725832 C110.251887,102.328526 110.411867,106.188015 109.716892,106.707817 C108.264285,107.794435 108.408462,111.586232 107.207198,113.316567 C104.379845,117.389469 101.914018,120.365141 99.5123586,123.824846 C97.0356422,127.392669 90.4134111,128.107327 86.7173307,129.334114 C85.9006456,129.605204 84.8724905,129.041579 84.0116229,129.327296 C83.8081801,129.394891 83.5710392,129.406482 83.3342521,129.373414 C83.417362,129.46715 83.5133813,129.556937 83.5819224,129.648646 C83.8936442,130.065257 85.4139176,129.668329 85.8582191,129.97679 C88.7302882,131.970605 100.095132,131.205712 103.24617,130.159894 C105.206796,129.509094 107.02527,128.548001 108.98587,127.897291 C111.500253,127.062693 113.974989,123.152833 115.780708,121.139772 C121.991526,114.215995 124.829678,102.223926 121.757974,92.9695646 C120.21394,88.3176137 116.171887,85.5293684 112.731054,83.1407405 C111.554605,82.3240105 109.545796,81.457116 107.633849,81.1124358 L107.633746,81.1124229 Z" stroke-opacity="0" stroke="#FFFFFF" stroke-width="1.17950344" fill="#E6B35A"></path>
        <path d="M121.486498,72.1751863 C121.116758,72.1634155 121.064812,75.7837379 121.036125,77.5096346 C120.862366,77.5198617 120.870156,77.7373202 120.91695,77.9837942 C119.050272,78.8127453 114.986903,80.472886 115.297943,80.8051264 C115.312672,80.8126521 115.314152,80.8230722 115.321484,80.8287968 C115.174355,80.8363224 115.020009,80.886043 115.013242,81.0895952 C114.998513,81.3576876 115.551305,81.1043248 115.819378,81.1132655 C116.2518,81.1279952 120.031357,82.5213234 121.533138,83.1522026 C121.719407,84.5800008 122.26807,85.4324358 122.26807,87.0641206 C122.26807,88.0813411 122.468612,89.4824008 122.528933,89.4824008 C122.551059,89.4824008 122.592225,89.4510762 122.623099,89.4348671 C122.667224,89.6113463 122.71726,89.715676 122.789069,89.6482412 C123.084215,89.3719156 123.619924,88.6310979 124.164162,87.7989757 C124.187703,87.7632129 124.212724,87.7402501 124.23478,87.7042171 C125.192909,86.5177278 126.286987,84.9986123 127.222017,83.6263365 C129.034542,83.8900679 130.69494,84.1005154 131.110149,84.1005154 C131.309514,84.1005154 138.197091,85.2839879 136.207559,83.2944177 C136.086911,83.1730299 135.94552,83.0699417 135.804572,82.962486 C135.848696,82.9274951 135.87375,82.8915715 135.875184,82.8438963 C135.889914,82.4598384 132.044871,80.6923707 131.417947,80.0225705 C131.115436,79.6994637 130.67713,79.4921423 130.374773,79.1690484 C130.295317,79.0841568 130.445385,78.8470159 130.683015,78.505198 L130.683015,78.4815276 C131.217547,77.8910681 131.788125,77.2814472 132.200246,76.8693258 C132.397842,76.6717556 133.510754,74.5896651 132.455082,74.7267345 C131.742816,74.8192804 129.416349,74.9664354 126.36937,75.8587047 C126.36937,75.8587047 125.5466,74.7827522 125.541011,74.7857495 C124.87936,74.5150521 123.005035,72.2252607 121.484125,72.1750255 L121.486498,72.1751863 Z" stroke-opacity="0" stroke="#FFFFFF" stroke-width="1.17950344" fill="#E6B35A"></path>
        <path d="M104.28068,71.638043 C104.061157,71.7439807 103.72819,72.174884 103.622406,71.9554637 C103.516469,71.736037 104.500049,71.5322468 104.28068,71.638043 C103.625938,71.9537463 101.093635,74.2350215 102.026755,74.9560153 C102.794491,75.5492599 105.641217,74.4397122 106.849177,74.8617069 C107.029702,74.9246778 109.036009,78.003155 109.350284,77.103881 C109.862599,75.6370846 109.22817,73.1435674 109.244347,73.0983493 C109.480645,72.4217311 111.333487,72.6994396 111.786221,72.4810935 C112.160373,72.3007614 112.918995,71.9810316 113.02346,71.6816917 C113.05144,71.6003313 113.072023,71.3602123 113.108795,71.4377777 C113.139734,71.5006199 112.614284,70.9913021 111.9744,70.7677845 C111.018041,70.4336531 110.050052,70.643007 109.364853,70.4034927 C109.048667,70.2929946 109.42958,68.4339522 109.314811,68.1964511 C108.93815,67.4154131 108.69935,66.4994734 108.765118,66.6360088 C108.952127,67.0238939 107.95574,67.0153005 107.692523,67.3560442 C107.364715,67.7802903 106.505449,69.2184699 105.949877,69.2105005 C105.284104,69.2001447 102.617175,68.565805 102.438111,69.0783711 C102.423381,69.1071871 104.100277,70.766794 104.280802,71.637953 L104.28068,71.638043 Z" stroke-opacity="0" stroke="#FFFFFF" stroke-width="0.8033945" fill="#E6B35A"></path>
        <path d="M130.060774,97.5121881 C129.882301,97.3464442 129.35954,97.193436 129.525207,97.0149435 C129.691034,96.836406 130.239395,97.6779385 130.060774,97.5121881 C129.528153,97.0176064 126.480736,95.4911839 126.149545,96.6229355 C125.877052,97.5541644 127.947951,99.8004422 127.995324,101.079233 C128.010053,101.270262 125.867192,104.260779 126.819145,104.225492 C128.371837,104.167924 130.462598,102.668395 130.510414,102.666632 C131.226655,102.640003 131.643485,104.466628 132.011906,104.808703 C132.316173,105.091255 132.890436,105.68111 133.207207,105.669352 C133.294022,105.666135 133.523985,105.5967 133.465426,105.65906 C133.418343,105.710453 133.700843,105.035752 133.675829,104.35849 C133.637557,103.346094 133.090682,102.520989 133.063757,101.795621 C133.049028,101.461001 134.921307,101.137721 135.100514,100.944428 C135.690523,100.309007 136.456497,99.7527091 136.353351,99.863799 C136.060263,100.179367 135.705085,99.2484277 135.291793,99.1274581 C134.777266,98.9768812 133.124818,98.7010316 132.929717,98.180792 C132.695921,97.5572583 132.31515,94.8423333 131.77252,94.8624724 C131.741582,94.8631156 130.806146,97.0257817 130.060774,97.5114484 L130.060774,97.5121881 Z" stroke-opacity="0" stroke="#FFFFFF" stroke-width="0.8033945" fill="#E6B35A"></path>
        <path d="M188.692776,121.556429 C188.173411,123.342833 184.917541,129.070363 183.547047,130.440851 C181.784333,132.203565 180.26835,134.041156 178.722927,135.586579 C177.627793,136.681713 174.50195,139.485948 173.577198,140.4107 C171.566453,142.421445 170.388371,141.669885 168.109861,143.948388 C166.98047,145.077779 164.707081,145.099919 163.607349,146.199645 C162.612634,147.194365 154.632439,147.792627 152.672675,148.772509 C152.1984,149.00965 150.781967,148.411961 150.421419,148.772509 C149.013471,150.180457 137.88773,150.693133 137.557097,151.023765 C135.853675,152.727194 131.31886,150.766003 128.87368,151.988589 C126.70529,153.072788 122.400753,152.310197 119.868655,152.310197 C118.466412,152.310197 114.740673,152.283568 110.903831,152.189594 C109.998074,152.061389 109.284586,151.959593 109.25559,151.988589 C109.236165,152.008014 109.149292,152.096958 109.094786,152.149393 C108.374133,152.127202 107.680142,152.097036 106.984233,152.068991 C106.550995,151.904045 106.091243,151.801922 105.717902,151.988589 C105.700599,151.997208 105.675899,152.000296 105.657632,152.008658 C102.663764,151.863947 100.220437,151.651872 99.6073809,151.345341 C97.0907465,150.087024 94.3879783,149.737301 91.2455719,149.737301 C86.3271879,149.737301 75.4367099,143.923322 71.6274814,142.018708 C71.0440844,141.727009 69.4261709,140.030829 68.5521045,139.566447 C68.5452221,139.229852 68.5332583,138.924466 68.411401,138.802628 C67.5151759,137.906402 67.1227755,135.903768 66.4817528,134.621723 C66.2150304,134.088278 66.4817528,132.132927 66.4817528,132.370467 C66.4817528,132.380951 67.1281849,129.797602 67.1249688,129.797602 C66.5739063,129.797602 63.6916551,133.552524 62.6224563,134.621723 C62.6124864,134.631693 62.6425889,134.689788 62.6626573,134.742326 C62.060086,135.572834 61.6375317,136.812215 61.6375317,138.682025 C61.6375317,145.05636 65.1534086,145.393881 68.451602,148.692075 C69.2613918,149.501865 70.9950392,148.964155 71.6274814,149.596597 C72.273206,150.242322 73.2209528,150.815865 74.3410492,151.325241 C72.9400796,152.146615 70.2408748,152.350038 69.3561246,153.234788 C68.4908125,154.100101 64.4788165,156.588015 62.9842653,157.335291 C62.7032764,157.475789 61.343807,157.629015 61.1752201,157.797602 C52.6792233,166.293599 43.0910135,171.781307 35.2455706,179.626748 C34.5850777,180.287241 34.341048,188.913618 34.341048,190.541321 C34.341048,193.383043 33.3759151,196.390265 35.2455706,198.259914 C36.03434,199.04869 38.6496759,198.48814 39.3460731,199.184537 C39.4970423,199.335513 41.39882,200.749881 41.6174299,200.531271 C42.4473986,199.701303 41.1551183,195.36202 41.1551183,194.179512 C41.1551183,187.96892 41.8253893,181.690147 45.7179337,177.797602 C53.2239694,170.291567 63.9260366,166.865881 70.7229588,160.068959 C72.7209102,158.071001 76.3817359,157.007038 79.0445668,154.822728 C78.9512105,155.463275 79.0600683,156.06674 79.5269789,156.571472 C79.8373692,156.907012 80.9433536,156.242666 81.3360241,156.450869 C84.0067345,157.866993 92.1458492,160.903095 94.5420543,157.978507 C94.9765918,158.804724 95.3209889,159.64187 95.7480844,160.068959 C97.3435305,161.664405 96.0958907,169.36329 95.2857729,170.983532 C92.2291136,177.096844 90.6171305,194.747652 88.009391,197.355391 C87.559159,197.80563 88.5495767,202.094048 88.9139136,202.822728 C89.8614866,204.717868 88.220443,208.943321 88.9139136,209.636798 C89.5961471,210.319032 89.1563031,212.130444 89.8385367,212.812678 C90.4596261,213.433774 93.2978492,212.6539 93.9189387,213.274989 C94.1651489,213.5212 97.4007638,215.722812 98.0194412,215.104135 C98.5320973,214.591479 96.6160595,208.679275 96.1902955,207.827753 C95.8235337,207.094223 97.1779731,193.634052 97.5571296,193.254889 C98.0877572,192.724268 97.0265021,190.609631 97.5571296,190.079009 C98.5903727,189.045766 99.8284864,167.636017 99.8284864,164.611673 C99.8284864,164.10121 101.133347,160.911502 100.290798,160.068959 C100.286295,160.064457 99.5371996,158.343976 98.5219538,156.671974 C100.021323,156.783321 101.286381,156.964039 101.657632,157.335291 C102.325162,158.002814 115.781918,157.335291 118.019441,157.335291 C126.905118,157.335291 140.883734,156.646863 146.220446,155.506145 C148.347838,155.051417 153.393065,154.653504 156.230496,153.234788 C157.877612,152.411227 163.679035,151.847815 164.692808,151.586547 C166.85916,151.028236 173.820784,149.353044 175.768185,147.405643 C177.212494,145.961327 182.151011,140.957948 183.96919,140.048859 C186.018985,139.023965 187.048355,135.383194 188.250597,133.6971 C188.404905,132.448798 191.76439,129.187004 191.104868,127.867954 C190.356448,124.822236 189.888656,121.67352 188.692808,121.556396 L188.692776,121.556429 Z" stroke-opacity="0" stroke="#FFFFFF" fill="#E6B35A"></path>
    </g>
</svg>

<svg width="256" height="216" xmlns="http://www.w3.org/2000/svg" preserveAspectRatio="xMidYMid">
	<path d="M110.582.009c-4.427.082-9.967 2.843-13.93 1.89-1.581-.382-3.514-.546-5.406-.443-.034.002-.068-.002-.101 0-1.924.114-3.802.52-5.186 1.367-.057.035-.123.067-.18.1a1.53 1.53 0 0 1-.182.221c-1.839 1.84-5.906 2.007-7.799 3.9-1.545 1.546-2.978 4.505-4.683 7.156-.016.025-.024.055-.04.08-6.068 7.075-10.91 15.78-12.623 22.895-1.408 5.845-1.388 13.74-3.699 19.557-.646 1.627-3.325 10.631-1.246 12.382 1.416 1.193 7.453 2.106 9.226 0 .954-1.133 9.705-3.966 12.442-7.216 3.223-3.827 4.886-10.438 7.096-16 .351-.885.804-1.824 1.326-2.754 1.254 2.428 2.249 4.41 2.774 5.629 1.094 2.535 2.297 6.041 3.297 9.788-2.166 3.318-1.263 7.856.301 9.93-6.331 1.971-3.315 8.783-3.558 9.025-.417.417-1.737.974-2.271 1.508-.66.66-.764 2.038-.764 3.035 0 .962.122 1.817.302 2.573-5.761 14.492-11.199 32.632-18.07 42.412-1.979.902-4.002 1.677-6.373 2.15-4.619 1.156-16.294 3.444-26.13 6.754a16.077 16.077 0 0 1-1.488 1.689c-.974.974-2.924.975-3.9 1.95-.757.758-3.12-.095-3.878.663-2.25 2.25-5.57 3.418-9.106 5.186-.392.196-1.65-.3-1.95 0-1.606 1.606-4.482 2.533-5.849 3.9-2.674 2.673-4.915 5.578-7.799 8.462-2.866 2.866 2.98 10.758 3.9 11.678 2.708 2.708 7.683 3.14 10.391 5.85 1.14 1.139 4.96-.385 6.332.522.354.05.671.114.885.221 3.99 1.995 11.818 3.47 16.542 5.045 6.511 2.17 11.676 7.97 18.392 9.648 5.113 1.279 10.92 1.959 16.08 3.679 2.158.719 4.778.226 6.875.924 3.921 1.308 7.462 2.93 11.035 4.121 1.238.413 2.873-.317 4.14 0 2.854.713 5.938.92 8.724 1.85 4.962 1.653 11.581-1.655 16.543 0 3.27 1.09 23.63-.655 25.267-2.292 1.203-1.204 5.78.325 7.356-.462 1.368-.684 5.52-.013 6.432-.925 2.355-2.355 7.189-2.458 10.553-4.14 1.416-.708 3.597.271 5.066-.463.844-.422 2.56.097 4.422.904 3.542-.074 6.268-.442 9.809-.442 4.21 0 10.022-1.999 16.18-5.025 6.817-1.535 15.148-3.308 15.538-3.698 2.962-2.962 10.833-2.11 13.77-5.046 2.08-2.08 4.752-2.924 6.894-5.065 1.907-1.908 4.528-4.092 7.276-6.392.479-1.334 1.703-2.588 2.834-3.718.474-.475 3.821-10.268 3.216-11.478-1.107-2.215-2.937-4.047-5.045-5.749-.654-.224-1.155-.452-1.387-.683-2.252-2.252-7.647-2.602-9.648-4.603-3.223-3.223-8.069-6.12-13.85-8.06-1.21-.6-2.343-1.239-3.155-2.05-1.03-1.03-6.98-2.345-8.724-3.217-.938-.469-2.978.258-3.678-.442-1.698-1.697-8.811-2.907-13.95-4.543-.75.048-1.952-.524-2.17-.743-.155-.155-4.139-.741-5.448-2.05-.149-.15-.683-5.486-.683-6.151 0-.246-.596-1.234-.242-1.588.055-.055.11-.12.161-.181-2.378-14.656-4.197-30.84-5.91-32.282-2.543-2.141-3.956-13.965-6.753-16.321-2.925-2.463-4.756-5.156-7.015-7.256-.002-.007.001-.014 0-.02-.85-4.673-2.465-9.923-2.975-10.352-.83-.698.427-3.865-.402-4.563-2.58-2.173-5.942-14.947-8.362-16.985-3.17-2.67-4.729-6.812-7.739-9.347-7.437-6.262-19.79-15.582-33.447-14.874a17.501 17.501 0 0 1-1.708-.583c-.869-.345-1.853-.461-2.875-.442Z" fill="#3C6991"/>
	<path d="M107.634 81.112c-1.147-.206-2.269-.218-3.149.074-1.465.486-3.827-.666-5.357-.39-5.785 1.045-10.32 2.612-11.1 4.556 8.585-2.461 18.116 3.033 22.02 8.253 1.624 2.17-.88 5.459.004 8.12.2.604.36 4.463-.335 4.983-1.453 1.086-1.309 4.878-2.51 6.609-2.827 4.072-5.293 7.048-7.695 10.508-2.476 3.568-9.099 4.282-12.795 5.51-.816.27-1.845-.293-2.705-.008-.204.068-.441.08-.678.046.083.094.18.184.248.276.312.416 1.832.02 2.276.328 2.872 1.994 14.237 1.229 17.388.183 1.96-.65 3.78-1.612 5.74-2.263 2.514-.834 4.989-4.744 6.795-6.757 6.21-6.924 9.049-18.916 5.977-28.17-1.544-4.652-5.586-7.44-9.027-9.83-1.176-.816-3.185-1.683-5.097-2.028Z" fill="#E6B35A"/>
	<path d="M121.486 72.175c-.37-.012-.421 3.609-.45 5.335-.174.01-.166.227-.12.474-1.866.829-5.93 2.489-5.618 2.821.015.008.016.018.023.024-.147.007-.301.057-.308.26-.014.269.538.015.806.024.433.015 4.212 1.408 5.714 2.04.186 1.427.735 2.28.735 3.911 0 1.017.2 2.418.26 2.418.023 0 .064-.03.095-.047.044.176.094.28.166.213.295-.276.83-1.017 1.375-1.849.024-.036.049-.059.07-.095.959-1.186 2.053-2.705 2.988-4.078 1.813.264 3.473.475 3.888.475.2 0 7.087 1.183 5.098-.807-.121-.121-.262-.224-.403-.332.044-.035.069-.07.07-.118.015-.384-3.83-2.152-4.457-2.821-.303-.324-.74-.53-1.043-.854-.08-.085.07-.322.308-.664v-.023c.535-.59 1.105-1.2 1.517-1.613.198-.197 1.31-2.28.255-2.142-.712.092-3.039.24-6.086 1.132 0 0-.822-1.076-.828-1.073-.662-.27-2.536-2.56-4.057-2.611h.002Z" fill="#E6B35A"/>
	<path d="M104.28 71.638c-.219.106-.552.537-.658.317-.106-.219.878-.423.659-.317-.655.316-3.187 2.597-2.254 3.318.767.593 3.614-.516 4.822-.094.18.063 2.187 3.141 2.501 2.242.513-1.467-.122-3.96-.106-4.006.237-.676 2.09-.399 2.542-.617.374-.18 1.133-.5 1.237-.8.028-.08.049-.32.086-.243.03.063-.495-.447-1.135-.67-.956-.334-1.924-.125-2.61-.365-.315-.11.066-1.969-.05-2.207-.376-.78-.615-1.697-.549-1.56.187.388-.81.38-1.072.72-.328.424-1.188 1.862-1.743 1.855-.666-.01-3.333-.645-3.512-.133-.015.03 1.662 1.689 1.843 2.56Z" fill="#E6B35A"/>
	<path d="M130.06 97.512c-.178-.166-.7-.319-.535-.497.166-.179.714.663.536.497-.533-.494-3.58-2.02-3.911-.89-.273.932 1.798 3.178 1.845 4.457.015.191-2.128 3.182-1.176 3.146 1.553-.057 3.644-1.557 3.691-1.558.717-.027 1.133 1.8 1.502 2.142.304.282.878.872 1.195.86.087-.003.317-.072.258-.01-.047.051.236-.623.21-1.3-.037-1.013-.584-1.838-.611-2.563-.015-.335 1.857-.658 2.037-.852.59-.635 1.355-1.191 1.252-1.08-.293.315-.648-.616-1.061-.737-.515-.15-2.167-.426-2.362-.946-.234-.624-.615-3.339-1.157-3.319-.031.001-.967 2.164-1.712 2.65Z" fill="#E6B35A"/>
	<path d="M188.693 121.556c-.52 1.787-3.775 7.514-5.146 8.885-1.763 1.763-3.279 3.6-4.824 5.146-1.095 1.095-4.221 3.899-5.146 4.824-2.01 2.01-3.189 1.259-5.467 3.537-1.13 1.13-3.403 1.152-4.503 2.252-.994.994-8.975 1.593-10.934 2.573-.475.237-1.891-.361-2.252 0-1.408 1.407-12.533 1.92-12.864 2.25-1.703 1.704-6.238-.257-8.683.966-2.169 1.084-6.473.321-9.005.321-1.403 0-5.128-.026-8.965-.12-.906-.129-1.62-.23-1.648-.201-.02.019-.107.108-.161.16-.72-.022-1.415-.052-2.11-.08-.434-.165-.894-.267-1.267-.08-.017.008-.042.011-.06.02-2.994-.145-5.438-.357-6.05-.664-2.517-1.258-5.22-1.608-8.362-1.608-4.919 0-15.81-5.814-19.619-7.718-.583-.292-2.2-1.988-3.075-2.453-.007-.336-.019-.642-.14-.763-.897-.897-1.29-2.9-1.93-4.181-.267-.534 0-2.49 0-2.252 0 .011.646-2.572.643-2.572-.551 0-3.433 3.755-4.503 4.824-.01.01.02.068.04.12-.602.83-1.024 2.07-1.024 3.94 0 6.374 3.515 6.712 6.814 10.01.81.81 2.543.272 3.175.905.646.645 1.594 1.219 2.714 1.728-1.4.822-4.1 1.025-4.985 1.91-.865.865-4.877 3.353-6.372 4.1-.28.14-1.64.294-1.809.463-8.496 8.496-18.084 13.983-25.93 21.829-.66.66-.904 9.287-.904 10.914 0 2.842-.965 5.85.905 7.719.788.789 3.404.228 4.1.925.151.15 2.053 1.565 2.271 1.346.83-.83-.462-5.169-.462-6.351 0-6.211.67-12.49 4.563-16.382 7.506-7.506 18.208-10.932 25.005-17.729 1.998-1.998 5.659-3.062 8.322-5.246-.094.64.015 1.244.482 1.748.31.336 1.416-.328 1.809-.12 2.67 1.416 10.81 4.452 13.206 1.528.435.826.779 1.663 1.206 2.09 1.596 1.595.348 9.294-.462 10.915-3.057 6.113-4.669 23.764-7.277 26.371-.45.45.54 4.739.905 5.468.947 1.895-.694 6.12 0 6.814.682.682.242 2.493.925 3.176.62.62 3.459-.16 4.08.462.246.246 3.482 2.448 4.1 1.83.513-.514-1.403-6.426-1.829-7.277-.366-.734.988-14.194 1.367-14.573.53-.53-.53-2.645 0-3.176 1.033-1.033 2.271-22.443 2.271-25.467 0-.51 1.305-3.7.463-4.543-.005-.005-.754-1.725-1.769-3.397 1.5.111 2.764.292 3.136.663.667.668 14.124 0 16.361 0 8.886 0 22.865-.688 28.201-1.829 2.128-.455 7.173-.852 10.01-2.271 1.648-.824 7.449-1.387 8.463-1.648 2.166-.559 9.128-2.234 11.075-4.181 1.444-1.445 6.383-6.448 8.201-7.357 2.05-1.025 3.08-4.666 4.282-6.352.154-1.248 3.513-4.51 2.854-5.829-.749-3.046-1.216-6.194-2.412-6.312Z" fill="#E6B35A"/>
</svg>
